X:390
T:Antidotum tarantulae
Z:Jack Campin, http://www.campin.me.uk/
F:Jack Campin's Nine-Note Tunebook
% last edit 03-02-2013
B:Walter Starkie, The Waveless Plain
B:Athanasius Kircher, Magnes (1641)
N:magical antidote for spider bite
M:C|
L:1/8
Q:1/2=100
K:DMin
A3A G2cB|AFBA G3 A|B2 D2 D2^C2 |D8:|
d3d c2dc|BGcB AABA|GF E3E   D2-|D8:|

